pro/src/icons/stroke-check.svg

<svg width="48" height="48" viewBox="0 0 48 48" fill="none" xmlns="http://www.w3.org/2000/svg">
<path id="icon" fill-rule="evenodd" clip-rule="evenodd" d="M43.7219 11.695C44.104 11.2963 44.0906 10.6633 43.6919 10.2811C43.2932 9.89896 42.6602 9.91238 42.278 10.3111L39.718 12.9819C39.7154 12.9847 39.7127 12.9875 39.7101 12.9903L17.938 35.6997C17.552 36.1025 16.9395 36.1028 16.5531 35.7009L16.552 35.6997L5.7245 24.3188C5.34383 23.9187 4.71086 23.9029 4.31073 24.2836C3.9106 24.6643 3.89483 25.2973 4.2755 25.6974L15.1055 37.0809L15.108 37.0835C16.2816 38.3082 18.2083 38.3081 19.382 37.0835L41.1618 14.366C41.1646 14.3632 41.1673 14.3603 41.17 14.3574L43.7219 11.695Z" fill="currentColor"/>
</svg>

<svg xmlns="http://www.w3.org/2000/svg" width="48" height="48" fill="none"><path id="icon" fill="currentColor" fill-rule="evenodd" d="M43.722 11.695a1 1 0 0 0-1.444-1.384l-2.56 2.67-.008.01L17.938 35.7a.945.945 0 0 1-1.385 0h-.001L5.725 24.319a1 1 0 0 0-1.45 1.378l10.83 11.384.003.002a2.945 2.945 0 0 0 4.274 0l21.78-22.717.008-.009z" clip-rule="evenodd"/></svg>
